src/assets/images/icons/networks/gnosis-chain.svg

<svg width="200" height="200" viewBox="0 0 200 200" fill="none" xmlns="http://www.w3.org/2000/svg">
<path d="M59.9061 113.471C65.7285 113.471 71.1037 111.531 75.4336 108.172L39.8984 72.6499C36.5392 76.9038 34.598 82.2767 34.598 88.1726C34.5236 102.128 45.871 113.471 59.9061 113.471Z" fill="#04795B"/>
<path d="M165.617 88.0962C165.617 82.2755 163.676 76.9026 160.317 72.5742L124.781 108.096C129.037 111.455 134.412 113.395 140.31 113.395C154.27 113.469 165.617 102.126 165.617 88.0962Z" fill="#04795B"/>
<path d="M183.537 49.5151L167.785 65.2617C173.011 71.53 176.146 79.4405 176.146 88.2467C176.146 108.023 160.096 124.067 140.312 124.067C131.577 124.067 123.59 120.933 117.319 115.709L100.073 132.948L82.828 115.709C76.5574 120.933 68.6437 124.067 59.8346 124.067C40.0512 124.067 24.0004 108.023 24.0004 88.2467C24.0004 79.5152 27.136 71.53 32.362 65.2617L24.2994 57.2017L16.6096 49.5151C7.65158 64.2913 2.5 81.5302 2.5 100.038C2.5 153.918 46.1725 197.5 99.9987 197.5C153.824 197.5 197.497 153.843 197.497 100.038C197.647 81.4558 192.495 64.2168 183.537 49.5151Z" fill="#04795B"/>
<path d="M170.625 32.724C152.932 14.1418 127.848 2.5 100.077 2.5C72.3055 2.5 47.2965 14.1418 29.5287 32.724C27.1396 35.2613 24.8256 37.9481 22.6602 40.7089L100.002 118.022L177.344 40.6345C175.403 37.9474 173.089 35.1869 170.625 32.724ZM100.077 15.1867C122.921 15.1867 144.123 23.9926 160.024 40.0372L100.077 99.9626L40.1292 40.0372C56.1056 23.9926 77.2329 15.1867 100.077 15.1867Z" fill="#04795B"/>
</svg>

<svg xmlns="http://www.w3.org/2000/svg" width="200" height="200" fill="none"><path fill="#04795B" d="M59.906 113.471c5.822 0 11.198-1.94 15.528-5.299L39.898 72.65c-3.359 4.254-5.3 9.627-5.3 15.523-.074 13.955 11.273 25.298 25.308 25.298M165.617 88.096c0-5.82-1.941-11.193-5.3-15.522l-35.536 35.522c4.256 3.359 9.631 5.299 15.529 5.299 13.96.074 25.307-11.269 25.307-25.299"/><path fill="#04795B" d="m183.537 49.515-15.752 15.747c5.226 6.268 8.361 14.179 8.361 22.985 0 19.776-16.05 35.82-35.834 35.82-8.735 0-16.722-3.134-22.993-8.358l-17.246 17.239-17.245-17.239c-6.27 5.224-14.184 8.358-22.993 8.358C40.05 124.067 24 108.023 24 88.247c0-8.732 3.136-16.717 8.362-22.985l-8.063-8.06-7.69-7.687C7.653 64.291 2.5 81.53 2.5 100.038c0 53.88 43.673 97.462 97.499 97.462s97.498-43.657 97.498-97.462c.15-18.582-5.002-35.821-13.96-50.523"/><path fill="#04795B" d="M170.625 32.724C152.932 14.142 127.848 2.5 100.077 2.5s-52.78 11.642-70.548 30.224a117 117 0 0 0-6.869 7.985l77.342 77.313 77.342-77.387a66 66 0 0 0-6.719-7.911m-70.548-17.537c22.844 0 44.046 8.806 59.947 24.85l-59.947 59.926-59.948-59.926c15.977-16.044 37.104-24.85 59.948-24.85"/></svg>
